X:1
T:Title
%%score [ ( 1 2 ) ( 3 4 ) ]
L:1/8
Q:1/4=120
M:2/2
K:Eb
V:1 treble-8 nm="Tenor I/II"
V:2 treble-8 
V:3 bass nm="Bass I/II"
V:4 bass 
V:1
"^Moderately bright" z2 | z8 | z2 d>d d2 z2 | z8 | z2 =e>e"^melody" !fermata!f2 d>d | %5
 B2 e2 e>ed>d | e2 e2 =e e3 | e>e e2 e>e f2 | g f2 e- e2 !>!e2 | d z d2 e2 f2 | f f2 f- f2 d>d | %11
 B2 B2 g2 _g2 | f2 f2 e d2 z | z4 z2 ^f2 | g2 e2 =e e2 e | _e2 e2 e2 f>f | %16
 g f2 e- e2"^melody" e=e | f2 _e2 f e2 d- |"^melody" d6 ^f>f | g2 ^fg- gg =f2 | =e6"^melody" B2 | %21
 c2 d_e- e g2 e | f2 d2 c B3 | e6 e2 | f2 f2 ^f f3 | !fermata!g8 |] %26
V:2
 x2 | x8 | x2 B>B B2 x2 | x8 | x2 ^c>c !fermata!d2 G>F | E2 G2 B>Bc>B | e2 c2 B G3 | %7
w: ||to a dance,||for to prance. I'll be|down to get you in a|Ta- xi, Hon- ey,|
 F>F =A2 c>c d2 | e d2 c- c2 (!>!c2 | B) x B2 c2 d2 | e d2 c- c2 c>B | e2 c2 e2 c2 | e2 d2 c B2 G | %13
w: bet- ter be read- y 'bout|half past eight. _ Oo|* Now dear- ie,|don't be late, _ want to|be there when the|band starts play- ing. Re-|
 E2 G2 B2 c2 | e2 c2 B G2 G | F2 =A2 c2 d>d | e d2 c- c2 cc | c2 c2 c c2 c- | c6 c>d | %19
w: mem- ber when we|get there, Hon- ey, the|two steps, I'm goin' to|have 'em all, _ Goin' to|dance out both my shoes|_ When they|
 e2 de- eB d2 | c6 B2 | c2 =Bc- c e2 c | d2 f2 e d3 | B6 B2 | d2 d2 e e3 | !fermata!e8 |] %26
w: play the "Jel- * ly Roll|Blues," To-|mor- row night _ at The|Dark- town Strut- ters'|Ball. The|Dark- town Strut- ters'|Ball.|
V:3
"^melody" z2 | z8 | z2 F,>F, F,2 z2 | z8 | z2 B,>B, !fermata!B,2 B,>B, | G,2 G,2 G,>G,A,>A, | %6
 B,2 G,2 G, B,3 | =A,>A, F,2 A,>A, A,2 | =A, A,2 A,- A,2 (!>!A,2 | _A,) z A,2 B,2 B,2 | %10
 C B,2 A,- A,2 A,>A, | B,2 G,2 B,2 =A,2 | C2 _A,2 A, A,2 G, | E,2 E,2 G,2 =A,2 | %14
 B,2 G,2 G, B,2 B, | =A,2 F,2 A,2 A,>A, | =A, A,2 A,- A,2 _A,A, | A,2 A,2 A, A,2 =A,- | %18
 A,6 =A,>A, | B,2 =A,B,- B,B, =B,2 |!f! _B,6 B,2 | =A,2 ^G,A,- A, A,2 A, | _A,2 A,2 A, A,3 | %23
 G,6 G,2 | C2 C2 C _C3 | !fermata!B,8 |] %26
V:4
 D,>C, | B,,2 D,2 F,>F,G,>F, | _A,6 D,>C, | B,,2 D,2 F,2 G,>F, | !fermata!_A,6 x2 | %5
w: Got an|in- vi- ta- tion to a|dance, So get|rea- dy, quick for to|prance.|
 E,2 B,,2 E,>E,F,>F, | G,2 B,,2 C, C,3 | C,>C, C,2 F,>F, F,2 | F, F,2 F,- F,2 (!>!_G,2 | %9
w: ||||
 F,) x F,2 =G,2 A,2 | A, A,2 B,,- B,,2 F,>F, | G,2 E,2 E,2 E,2 | A,2 B,2 B,, B,,2 G, | %13
w: ||||
 E,2 B,,2 E,2 E,2 | E,2 B,,2 C, C,2 C, | C,2 C,2 F,2 F,>F, | F, F,2 F,- F,2 E,=E, | %17
w: ||||
 F,2 A,,2 C, F,2 ^F,- | F,6 D,>D, | E,2 E,E,- E,E, G,2 | (G,2 C,4) z2 | F,2 F,F,- F, F,2 F, | %22
w: |||||
 B,,2 B,,2 F, B,,3 | E,6 E,2 | A,2 A,2 A, A,3 | !fermata!E,8 |] %26
w: ||||

